X: 32
T: O! THE WEARY WATERS OF TYNE
B: "Old English Country Dances", Frank Kidson ed., William Reeves pub., London 1890
Z: 2010-9-26 John Chambers <jc:trillian.mit.edu>
M: 6/8
L: 1/8
K: G
|: G2B c2e | dBG B2A | G2B c2e | dBG A3 |\
   G2B c2e | dBG g3  | fed edB | gdB A3 :|
|: GAB gag | fed g3  | GAB gag | gdB A3 |\
   GAB gag | fed g3  | fed edB | gdB A3 :|


%%sep 1 1 500

%%sep 1 1 500

